X: 1093
T: the Earl of Haddington's Strathspey
%R: air, strathspey
B: Niel Gow & Sons "A Collection of Strathspey Reels, etc." v.1 p.9 #3
Z: 2022 John Chambers <jc:trillian.mit.edu>
M: C
L: 1/8
Q: "Slow"
K: C
% - - - - - - - - - -
% Voice 1 reformatted for 2 4-bar lines.
V: 1 staves=2
|:\
G>Ec>G A/A/A A2 | Tc2g>c a>ce<g | E>Gc>G A<a-a>g | g>de<c g>GA<c ::
f>g{fg}a>g g<eTe2 | e>dd>e Tg>de<g | E>Gc>G A<aTa>g | c'>ga>c TA>GA<c :|
% - - - - - - - - - -
% Voice 2 preserves the staff layout in the book.
V: 2 clef=bass middle=d
|: c2c2 f2f2 | c2c2 c2c2 | c2c2 f2f2 | g2G2 c2c2 :: f2f2 c2c2 |
G2G2 c2c2 | c2c2 f2f2 | g2G2 c2c2 :|
